X:1
T:Weihnachtsliedchen
T:Max Bruch
T:Text: Karl Simrock
T:Weihnachtsliedchen
T:Nr. 8 aus Neun Lieder, Op. 60
T:CPDL - Creative Commons Attribution Non Commercial 3.0
T:CPDL - Creative Commons Attribution Non Commercial 3.0
C:Max Bruch
Z:CPDL - Creative Commons Attribution Non Commercial 3.0
%%score [ 1 2 3 ( 4 5 ) ]
L:1/8
Q:1/4=60
M:6/8
K:G
V:1 treble nm="S"
V:2 treble nm="A"
V:3 treble-8 nm="T"
V:4 bass nm="B"
V:5 bass 
V:1
"^Andante sostenuto"!pp! B | B2 B B2 B | (B2 d) d2 c | (BA)G A2 F | G3- G2 B | %5
w: Es|zieht aus wei- ter|Fer- * ne ein|Lied _ zu euch her-|ein, _ das|
 B2 B"^poco cres." B2 B | (B2 e) e2 B | !>!c2 B (BG)A | B3- B2!pp! B | (c>B)c B2 B | A3 G2!<(! G | %11
w: klingt vom Weih- nachts-|ster- * ne und|hel- lem Lich- * ter-|schein, _ das|klin- * get wohl auch|lei- se von|
 c2 B!<)!!>(! e2 d!>)! |"^cresc." d3- d2 c | (B>A)B G2 A | (B2 c)!<(! (de)f!<)! | %15
w: Treu- e man- chen|Tag, _ die|frem- * der Lust und|Wei- * se _ sich|
[Q:1/4=48]"^poco rit.    -    -    -    -    -    -    -" g2 d!>(! d2 d!>)! | d3- !fermata!d2 |] %17
w: nim- mer schi- cken|mag. _|
V:2
!pp! G | G2 G G2 G | G3 (DE)F | (GF)G E2 D | (D>E)C D2 G | G2 G"^poco cres." A2 A | (G2 B) B2 B | %7
w: |||* * zu euch, zu|euch _ her- ein, *|||
 !>!A2 F E2 E | F3- F2!pp! G | G2 G G2 E | E3 E2!<(! B, | C2 D!<)!!>(! (EF)G!>)! | %12
w: |||||
"^cresc." (GFE FG)A | (G>F)G E2 F | G3!<(! A2 A!<)! | G2 B!>(! (B>c)A!>)! | G3- !fermata!G2 |] %17
w: |||||
V:3
!pp! d | d2 d (e>f)e | (d2 B) B2 c | (dc)B (dc)A | (B>c)A B2 d | d2 d"^poco cres." (^d>^c)d | %6
w: Es|zieht aus wei- * ter|Fer- * ne ein|Lied _ zu euch, _ zu|euch _ her- ein, das|klingt vom Weih- * nachts-|
 (e2 B) B2 e | !>!e2 ^d e3- | (e>^d)^c d2!pp! e | e2 e (eB)G | c3 B2!<(! G | %11
w: ster- * ne und|hel- lem Lich-|* * ter- schein, das|klin- get wohl _ auch|lei- se von|
 G2 G!<)!!>(! (GA)B!>)! |"^cresc." (A3 (c)B)A | d2 d (ed)c | (d2 g)!<(! (fe)d!<)! | %15
w: Treu- e man- * chen|Tag, _ _ die|frem- der Lust _ und|Wei- * se _ sich|
 d2 B!>(! d2 c!>)! | B3- !fermata!B2 |] %17
w: nim- mer schi- cken|mag. _|
V:4
!pp! G, | G,2 G, E,2 E, | G,3 G,,2 A,, | (B,,D,)E, C,2 D, | G,3- G,2 G, | %5
w: |||* * zu euch her-|ein, _ _|
 G,2 G,"^poco cres." F,2 F, | (E,2 G,) G,2 G, | !>!A,2 B, C2 C | B,3- B,2!pp! E, | %9
w: _ _ _ _||* * Lich- ter-|schein, _ _|
 (C,>E,)C, E,2 E, | (A,,2 C,) E,2!<(! E, | E,2 D,!<)!!>(! C,2 (B,,/!>)!C,/) | %12
w: _ _ _ _ _|||
"^cresc." D,3- (D,E,)F, | (G,>D,)G, (CB,)A, | (G,F,E,)!<(! D,2 (D/!<)!C/) | B,2 G,!>(! D,2 D,!>)! | %16
w: ||||
 G,3- !fermata!G,2 |] %17
w: |
V:5
 x | x6 | x6 | x6 | x6 | x6 | x6 | x6 | x6 | x6 | x6 | x6 | x6 | x6 | x6 | x6 | (G,,3 G,,2) |] %17

